X: 24434
T: Luachrachán's, The
R: jig
M: 6/8
K: Dmajor
f|:fec efe|ABc BAF|EFA BAB|cBB B2 f|
fec efe|ABc BAF|EFA BAB|cAA A2 f:|
|:eaa a2 a|bab c'af|abc' baf|efa b2 c'|
baf fec|ABc BAF|EFA BAB|1 cAA A2 f:|2 cAA A3||

